X: 3
T: The Green Mountain
R: reel
M: 4/4
L: 1/8
K: Dmaj
|:A~F3 AFEF|D~F3 ABde|~f3d efdB|Adfd edBd||A~F3 AFEF|D~F3 ABde|~f3d efdB|1 AFEF D2 dB:|2 AFEF D2 de|||:f~a3 bafe|f2 af efde|f2 df efdB|Adfd edBd||f~a3 bafe|f2 af efde|f2 df efdB|1 AFEF 2 de:|2 AFEF D2 dB||


Tune 166	Setting 12797

